X:01
T:Mrs Macintyres Strathspey. 2 Voices. Dix.01
M:C
L:1/8
Q:1/4=90
S:Anon. MS dated 1811, from Dixon collection, Holton le Moor, Lincs.
R:Strathspey
N:Repeat marks added at start and end
O:England;Lincolnshire;Holton le Moor
Z:vmp.R.Greig 2010 <http://www.village-music-project.org.uk>
K:F
[V:1]|:f|(F>G)B>F c>FA>f|a/g/f/e/ f>F {FG}BGGA|F>GA>G c>FA>f|a/g/f/e/ f>d c<AA:|
[V:2]|:z|F,2F,2G,2F,2|F,2F,2C2C,2|F,2F,2F,2F,2|[C2A,2F,2][C2A,2F,2]F,2F,,:|
[V:1]|:c|f>gf>e c>af>d|d<f{c}c{B}<A AGGc|{g}f/e/f/g/ a/g/f/e/ f>cd>f|c/f/f/d/ c/a/a/g/ c>fA>f|
[V:2]|:z|C2D2C2C2|D2C2C2C,2|F,2F,2C2D2|F,2B,2A,2F,2|
[V:1]a/g/f/e/ f>F {FG}A>GG>A|F>GA>B d>ef>g|a/g/f/e/ f>d c<AA<f:|
[V:2]C,2F,2C2C,2|D,2A,2B,2C,2|D,2B,2F,2G,,2:|

